src/assets/images/wilson.svg

<svg width="51" height="133" viewBox="0 0 51 133" fill="none" xmlns="http://www.w3.org/2000/svg">
<path d="M46.6821 10.6636V128.362C46.6821 129.864 45.4701 131.099 43.9551 131.099H7.02599C5.52989 131.099 4.29892 129.883 4.29892 128.362V10.6636H46.6821ZM2.42406 8.76275V128.362C2.42406 130.909 4.4883 133 7.04493 133H43.974C46.5117 133 48.5949 130.928 48.5949 128.362V8.76275H2.42406Z" fill="black"/>
<path d="M0 0H51V5.39831H0V0Z" fill="black"/>
<path d="M22.4036 41.2857L20.2826 30.9453L22.4983 30.8692L23.5967 37.1229L24.7709 30.9643L26.4374 30.8882L27.5358 37.1989L28.8426 30.9643L30.7174 30.8882L28.4827 41.3237H26.4753L25.3769 34.956L24.2596 41.3237H22.4036V41.2857Z" fill="black"/>
<path d="M24.4489 55.2757V44.9353L26.4942 44.7642V55.1046L24.4489 55.2757Z" fill="black"/>
<path d="M23.1801 58.8302L25.2065 58.6591V67.4789H28.6153L28.407 69.1136H23.1801V58.8302Z" fill="black"/>
<path d="M23.3695 82.4954C22.8013 82.0202 22.3658 81.3929 22.1006 80.6136L23.824 79.8152L23.9944 80.1003C24.2596 80.5565 24.5247 80.9177 24.7709 81.1838C25.0171 81.4499 25.3201 81.564 25.6988 81.564C25.945 81.564 26.1534 81.4499 26.3427 81.2218C26.5321 80.9937 26.6268 80.7276 26.6268 80.4615C26.6268 80.1954 26.57 79.9673 26.4374 79.7582C26.3049 79.5491 26.1344 79.378 25.945 79.245L24.127 78.1615C23.5967 77.8574 23.1801 77.4962 22.8581 77.04C22.5362 76.5838 22.3847 76.0706 22.3847 75.5194C22.3847 74.9111 22.5173 74.3789 22.8013 73.9037C23.0854 73.4285 23.4642 73.0673 23.9566 72.8012C24.4489 72.5351 24.9792 72.421 25.6042 72.421C26.3238 72.421 26.9298 72.5921 27.4222 72.9533C27.9146 73.3144 28.2934 73.8276 28.5395 74.5309L26.8162 75.3103C26.7783 75.2343 26.7026 75.0632 26.5889 74.8161C26.4753 74.55 26.3238 74.3599 26.1534 74.2458C25.9829 74.1318 25.7746 74.0748 25.5284 74.0748C25.2254 74.0748 24.9981 74.1698 24.8277 74.3599C24.6573 74.55 24.5815 74.7971 24.5815 75.1202C24.5815 75.3483 24.6383 75.5384 24.7709 75.7285C24.9035 75.9185 25.055 76.0516 25.2254 76.1466L26.9109 77.1351C28.1418 77.8384 28.8047 78.7698 28.8615 79.9102C28.8615 80.5755 28.71 81.1458 28.4259 81.659C28.1418 82.1722 27.7442 82.5524 27.2328 82.8375C26.7215 83.1226 26.1723 83.2557 25.5473 83.2557C24.6383 83.1987 23.9376 82.9706 23.3695 82.4954Z" fill="black"/>
<path d="M22.9528 95.592C22.4794 94.5845 22.2332 93.254 22.2332 91.6573C22.2332 89.9466 22.4794 88.616 22.9907 87.6846C23.502 86.7532 24.3164 86.297 25.4527 86.297C27.6116 86.297 28.6721 88.0647 28.6721 91.6003C28.6721 93.1779 28.4259 94.5085 27.9525 95.554C27.4601 96.5994 26.6268 97.1316 25.4148 97.1316C24.2596 97.1126 23.4263 96.5994 22.9528 95.592ZM26.4374 94.4895C26.5889 93.8432 26.6647 92.8738 26.6647 91.5622C26.6647 90.5168 26.5889 89.6424 26.4374 88.9581C26.2859 88.2738 25.964 87.9127 25.4527 87.9127C24.9603 87.9127 24.6383 88.2548 24.4868 88.9391C24.3353 89.6234 24.2596 90.4978 24.2596 91.5432C24.2596 92.8548 24.3353 93.8432 24.4868 94.4895C24.6383 95.1358 24.9603 95.4589 25.4527 95.4589C25.945 95.4589 26.267 95.1358 26.4374 94.4895Z" fill="black"/>
<path d="M27.0624 110.894L24.0323 104.374V110.722L22.2143 110.798V100.458L24.3353 100.382L27.0245 106.579V100.553L28.7479 100.382V110.722L27.0624 110.894Z" fill="black"/>
</svg>

<svg width="51" height="133" fill="none" xmlns="http://www.w3.org/2000/svg"><path d="M46.682 10.664v117.698a2.732 2.732 0 0 1-2.727 2.737H7.026a2.732 2.732 0 0 1-2.727-2.737V10.664h42.383ZM2.424 8.763v119.599c0 2.547 2.064 4.638 4.62 4.638h36.93c2.538 0 4.62-2.072 4.62-4.638V8.762H2.425ZM0 0h51v5.398H0V0Z" fill="#000"/><path d="m22.404 41.286-2.121-10.34 2.215-.077 1.099 6.254 1.174-6.159 1.666-.076 1.099 6.31 1.307-6.234 1.874-.076-2.234 10.436h-2.008l-1.098-6.368-1.117 6.368h-1.856v-.038ZM24.449 55.276v-10.34l2.045-.172v10.34l-2.045.172ZM23.18 58.83l2.026-.17v8.819h3.41l-.209 1.635H23.18V58.83ZM23.37 82.495a4.152 4.152 0 0 1-1.27-1.881l1.724-.799.17.285c.266.457.53.818.777 1.084.246.266.55.38.928.38.246 0 .454-.114.644-.342.19-.228.284-.494.284-.76 0-.267-.057-.495-.19-.704a1.816 1.816 0 0 0-.492-.513l-1.818-1.084c-.53-.304-.947-.665-1.269-1.121a2.582 2.582 0 0 1-.473-1.52c0-.609.132-1.141.416-1.616a2.936 2.936 0 0 1 1.156-1.103c.492-.266 1.022-.38 1.647-.38.72 0 1.326.171 1.818.532.493.361.871.875 1.117 1.578l-1.723.78c-.038-.077-.113-.248-.227-.495-.114-.266-.265-.456-.436-.57a1.099 1.099 0 0 0-.625-.171c-.303 0-.53.095-.7.285-.17.19-.247.437-.247.76 0 .228.057.418.19.608s.284.324.454.419l1.686.988c1.23.703 1.894 1.635 1.95 2.775a3.52 3.52 0 0 1-.435 1.749 2.972 2.972 0 0 1-1.193 1.178c-.512.286-1.06.419-1.686.419-.909-.057-1.61-.285-2.178-.76ZM22.953 95.592c-.474-1.007-.72-2.338-.72-3.935 0-1.71.246-3.041.758-3.972.511-.932 1.325-1.388 2.462-1.388 2.159 0 3.22 1.768 3.22 5.303 0 1.578-.247 2.909-.72 3.954-.493 1.045-1.326 1.578-2.538 1.578-1.155-.02-1.989-.533-2.462-1.54Zm3.484-1.102c.152-.647.228-1.616.228-2.928 0-1.045-.076-1.92-.228-2.604-.151-.684-.473-1.045-.984-1.045-.493 0-.815.342-.966 1.026-.152.684-.227 1.559-.227 2.604 0 1.312.075 2.3.227 2.947.151.646.473.969.966.969.492 0 .814-.323.984-.97ZM27.062 110.894l-3.03-6.52v6.348l-1.818.076v-10.34l2.121-.076 2.69 6.197v-6.026l1.723-.171v10.34l-1.686.172Z" fill="#000"/></svg>
